!!!ONB: MCCC : ICD0071_08 : Extracted Monophonic Melody
!!!COM: Debussy, Claude
!!!OPR: Préludes, Premier Livre
!!!OMV: 8
!!!SCT: CD 125 ; L.117
!!!ODT: 1909///
**kern
*staff1
*clefG2
*k[b-e-a-d-g-c-]
*G-:
*M6/4
=2
2.dd-
8b-
8g-
4e-
8g-
8b-
=3
4dd-
8b-
8g-
4e-
8g-
8b-
4g-
8g-
8e-
=4
4g-[
4g-]
4e-
2.d-
=5
2.d-[
4d-]
4e-
4g-
=6
2.a-
4dd-
4b-
8g-
8b-
=7
4a-
4dd-
4b-[
4b-]
2ee-[
=8
2.ee-]
2.r
=9
2.dd-
8b-
8g-
4e-
8g-
8b-
=10
4dd-
8b-
8g-
4e-
8g-
8b-
4g-
8g-
8e-
=11
4g-
8f
8e-
4d-
4.d-
8d-
4d-
=12
2.d-[
2d-]
8B-
8d-
=13
1.r
=14
8b-
8ff
2ee-
4.dd-
8cc-
8b-
8a-
=15
8g-
8a-
4.b-
8a-
4.g-
8f
4e-[
=16
2.e-]
4r
4r
8r
8aa-
=17
4ccc-
8bb-
8aa-
4gg-[
2.gg-]
=18
4bb-
8aa-
8gg-
4ee-[
2ee-]
8dd-
8cc-
=19
4b-
8a-
8g-
4e-
4e-
4e-
8e-
8c
=20
4e-
8e-
4.e-
4e-
4c
8e-
8c
=21
4e-
8e-
8e-
8e-
16f
16g
4b-
4cc
8ee-
8cc
=22
4ee-
8b-
8cc
8ee-
8ff
8gg
8bb-
2eee-[
=23
4eee-]
12ddd-
12eee-
12ddd-
4bb-
4.aa-
8gg-
8ff
8ee-
=24
4ee-
12dd-
12ee-
12dd-
4b-
2a-
8g-
8a-
=25
4.b-
8g-
4e-
4g-
4b-
4dd-
=26
4b-
4g-
4e-[
4e-]
2g-
=27
4.b-
8g-
4g-
4dd-
4ee-
4gg-
=28
4bb-
4gg-
4b-[
4b-]
2d-
=29
2.g-
4g-
2ddd-
=30
2.ddd-
8bb-
8gg-
4ee-
8gg-
8bb-
=31
4ddd-
8bb-
8gg-
4ee-
8gg-
8bb-
4gg-
8gg-
8ee-
=32
2gg-
4ff[
4ff]
2ee-
=33
2.dd-
4cc-
4b-
4a-
=34
8g-
8a-
4.b-
8a-
4.g-
8f
4e-[
=35
8e-]
8d-
4.e-
8d-
2.e-
=36
8c-
8g-
8a-
8cc-
8dd-
8ee-
8gg-
8aa-
8ccc-
4ddd-
8eee-
=37
1.ggg-
=38
16ggg-
8.ggg-
2ggg-[
2.ggg-]
=39
16gg-
8.ggg-[
2ggg-]
2.r
=40
1.r
==
*-
